symbols/web/priority/materialsymbolsoutlined/priority_wght300grad200_40px.svg

<svg xmlns="http://www.w3.org/2000/svg" height="40" width="40"><path d="M14.917 34.875q-4.084 0-6.938-2.854t-2.854-6.938V14.917q0-4.084 2.854-6.938t6.938-2.854h10.166q4.084 0 6.938 2.854t2.854 6.938v10.166q0 4.084-2.854 6.938t-6.938 2.854Zm3.416-8.333 9.959-10-2-1.959-7.959 7.959-3.916-3.875-2 2Zm-3.416 5.541h10.166q2.917 0 4.959-2.062 2.041-2.063 2.041-4.938V14.917q0-2.917-2.062-4.959-2.063-2.041-4.938-2.041H14.917q-2.917 0-4.959 2.062-2.041 2.063-2.041 4.938v10.166q0 2.917 2.062 4.959 2.063 2.041 4.938 2.041ZM20 20Z"/></svg>

<svg xmlns="http://www.w3.org/2000/svg" height="40" width="40"><path d="M14.917 34.875Q10.833 34.875 7.979 32.021Q5.125 29.167 5.125 25.083V14.917Q5.125 10.833 7.979 7.979Q10.833 5.125 14.917 5.125H25.083Q29.167 5.125 32.021 7.979Q34.875 10.833 34.875 14.917V25.083Q34.875 29.167 32.021 32.021Q29.167 34.875 25.083 34.875ZM18.333 26.542 28.292 16.542 26.292 14.583 18.333 22.542 14.417 18.667 12.417 20.667ZM14.917 32.083H25.083Q28 32.083 30.042 30.021Q32.083 27.958 32.083 25.083V14.917Q32.083 12 30.021 9.958Q27.958 7.917 25.083 7.917H14.917Q12 7.917 9.958 9.979Q7.917 12.042 7.917 14.917V25.083Q7.917 28 9.979 30.042Q12.042 32.083 14.917 32.083ZM20 20Q20 20 20 20Q20 20 20 20Q20 20 20 20Q20 20 20 20Q20 20 20 20Q20 20 20 20Q20 20 20 20Q20 20 20 20Z"/></svg>
